packages/foundations/assets/icons/functional/images/layout/zoom_out_14.svg

<svg width="14" height="14" viewBox="0 0 14 14" fill="none" xmlns="http://www.w3.org/2000/svg">
<g clip-path="url(#clip0_185_1537)">
<path fill-rule="evenodd" clip-rule="evenodd" d="M6.30002 1.40002C9.01474 1.40002 11.2 3.58192 11.2 6.30002C11.2 7.41007 10.8234 8.41601 10.2264 9.22722L12.3868 11.3903C12.529 11.5326 12.6 11.7177 12.6 11.8884C12.6 12.2869 12.2731 12.6 11.9178 12.6C11.733 12.6 11.5413 12.5504 11.3919 12.4008L9.23149 10.2376C8.40713 10.8211 7.39444 11.2 6.30002 11.2C3.59952 11.2 1.40002 9.00398 1.40002 6.30002C1.40002 3.58192 3.59952 1.40002 6.30002 1.40002ZM6.29557 2.8089C4.36012 2.8089 2.82315 4.36014 2.82315 6.29555C2.82315 8.23104 4.36012 9.79643 6.29557 9.79643C8.23102 9.79643 9.81069 8.23104 9.81069 6.29555C9.81069 4.36014 8.23102 2.8089 6.29557 2.8089ZM8.40002 5.60002V7.00002H4.20002V5.60002H8.40002Z" fill="#1A1C1F"/>
</g>
<defs>
<clipPath id="clip0_185_1537">
<rect width="14" height="14" fill="white"/>
</clipPath>
</defs>
</svg>

<svg xmlns="http://www.w3.org/2000/svg" width="14" height="14" fill="none"><g clip-path="url(#a)"><path fill="#1A1C1F" fill-rule="evenodd" d="M6.3 1.4c2.715 0 4.9 2.182 4.9 4.9 0 1.11-.377 2.116-.974 2.927l2.16 2.163a.72.72 0 0 1 .214.498c0 .399-.327.712-.682.712a.72.72 0 0 1-.526-.2l-2.16-2.162c-.825.583-1.838.962-2.932.962-2.7 0-4.9-2.196-4.9-4.9 0-2.718 2.2-4.9 4.9-4.9m-.004 1.409a3.46 3.46 0 0 0-3.473 3.487c0 1.935 1.537 3.5 3.473 3.5a3.51 3.51 0 0 0 3.515-3.5c0-1.936-1.58-3.487-3.515-3.487M8.4 5.6V7H4.2V5.6z" clip-rule="evenodd"/></g><defs><clipPath id="a"><path fill="#fff" d="M0 0h14v14H0z"/></clipPath></defs></svg>
